X:1
T:To You, Holy Lord
T:To You, Holy Lord
T:Scott Werdebaugh, 2019
T:Scott Werdebaugh, 2019
T:© 2019 Scot Werdebaugh &amp; New Heart Music - May freely copy &amp; use for Christian worship &amp; devotions with no alterations. All other rights reserved.
C:Scott Werdebaugh, 2019
Z:© 2019 Scot Werdebaugh & New Heart Music - May freely copy & use for
Z:Christian worship & devotions with no alterations. All other rights reserved.
%%score ( 1 2 ) ( 3 4 )
L:1/8
Q:1/4=120
M:3/4
K:C
V:1 treble 
V:2 treble 
V:3 bass 
V:4 bass 
V:1
"^Prayerfully" [EG]2 | [Ec]2 [DB]2 [CA]2 | [EG]4 [CE]2 | [G,C]4 [B,D]2 x6 | [CE]4 !breath![EG]2 | %5
w: 1.~To|You, Ho- ly|Lord, I|come to|You, To|
w: 2.~Cre-|ate \- in|me Your|Spir- it,|Lord, And|
w: 3.~Lord,|fill all my|life with|your great|love; And|
 [Ec]2 [DB]2 [CA]2 | [EG]4 [CE]2 | (G2 F2) [CE]2 | [B,D]4 !breath![DG]2 | [Ec]2 [DB]2 [CA]2 | %10
w: give all I|am to|You * a-|lone; Help|me to o-|
w: may all my|life be|led * by|You. Lord,|so let me|
w: help me to|give and|show * Your|love To|o- thers I|
 [EG]4 [CE]2 | [G,C]4 [B,D]2 | [CE]4 !breath![EG]2 | [CA]2 [DB]2 [Ec]2 | [EG]4 [FA]2 | %15
w: bey and|trust You|more, That|all may see|You, and|
w: live a|life that’s|true That|all may see|You in|
w: see and|meet each|day, So|they might know|You and|
 [Ec]4 [DB]2 :| !fermata![Ec]4"^Play 3 times" :| %17
w: on- ly|You!|
w: all I|do!|
w: Your great|love!|
V:2
 x2 | x6 | x6 | x12 | x6 | x6 | x6 | D4 x2 | x6 | x6 | x6 | x6 | x6 | x6 | x6 | x6 :| x4 :| %17
V:3
 [C,C]2 | [C,G,]2 [G,,G,]2 [F,,F,]2 | [C,G,]4 [C,G,]2 | [C,E,]4 [G,,G,]2 [C,G,]4 !breath![C,C]2 | %4
 [C,G,]2 [G,,G,]2 [F,,F,]2 | [C,C]4 [C,G,]2 | (B,2 A,2) [C,G,]2 | [G,,G,]4 !breath![G,,B,]2 | %8
 [C,G,]2 [G,,G,]2 [F,,F,]2 | [C,C]4 [C,G,]2 | [C,E,]4 [G,,G,]2 | [C,G,]4 !breath![C,C]2 | %12
 [F,,F,]2 [G,,G,]2 [C,G,]2 | [C,C]4 [F,C]2 | [C,G,]4 [G,,G,]2 | %15
 !fermata![C,G,]4"^Play 3 times" x2 :| x4 :| %17
V:4
 x2 | x6 | x6 | x12 | x6 | x6 | G,,4 x2 | x6 | x6 | x6 | x6 | x6 | x6 | x6 | x6 | x6 :| x4 :| %17

